icons/markdown.svg

<svg viewBox="0 0 32 19.7" xmlns="http://www.w3.org/2000/svg"><path d="m29.69 19.7h-27.38a2.31 2.31 0 0 1 -2.31-2.31v-15.08a2.31 2.31 0 0 1 2.31-2.31h27.38a2.31 2.31 0 0 1 2.31 2.31v15.08a2.3 2.3 0 0 1 -2.31 2.31zm-22-4.62v-6l3.08 3.85 3.07-3.85v6h3.08v-10.46h-3.08l-3.07 3.85-3.08-3.85h-3.08v10.46zm20.62-5.23h-3.08v-5.23h-3.08v5.23h-3.07l4.61 5.39z" fill="#42a5f5"/></svg>

<svg xmlns="http://www.w3.org/2000/svg" viewBox="0 0 32 19.7"><g data-name="Calque 2"><path d="M29.69 19.7H2.31A2.31 2.31 0 010 17.39V2.31A2.31 2.31 0 012.31 0h27.38A2.31 2.31 0 0132 2.31v15.08a2.3 2.3 0 01-2.31 2.31zm-22-4.62v-6l3.08 3.85 3.07-3.85v6h3.08V4.62h-3.08l-3.07 3.85-3.08-3.85H4.61v10.46zm20.62-5.23h-3.08V4.62h-3.08v5.23h-3.07l4.61 5.39z" fill="#42a5f5" data-name="Calque 1"/></g></svg>
